X:32
T:Anthoinette
C:Thoinot Arbeau
B:L'Orchesographie
R:Gaillarde
M:6/8
L:1/8
Q:C8=30
K:F
AdG A2 A | ddc B2 A | ccB A2 A | GFF E2 E |
DCD E2 F | AFG E2 D | DCD EFG | AFG E3 ||
